src/pos-icons/television-stop.svg

<svg height="24" viewBox="0 0 24 24" width="24" xmlns="http://www.w3.org/2000/svg"><path d="m3 3h18c1.1 0 2 .89 2 2v12c0 1.1-.9 2-2 2h-5v2h-8v-2h-5c-1.1 0-2-.9-2-2v-12c0-1.11.89-2 2-2m0 2v12h18v-12zm6 3h6v6h-6z"/></svg>

<?xml version="1.0" encoding="UTF-8"?><!DOCTYPE svg PUBLIC "-//W3C//DTD SVG 1.1//EN" "http://www.w3.org/Graphics/SVG/1.1/DTD/svg11.dtd"><svg xmlns="http://www.w3.org/2000/svg" xmlns:xlink="http://www.w3.org/1999/xlink" version="1.1" id="mdi-television-stop" width="24" height="24" viewBox="0 0 24 24"><path d="M3 3H21C22.1 3 23 3.89 23 5V17C23 18.1 22.1 19 21 19H16V21H8V19H3C1.9 19 1 18.1 1 17V5C1 3.89 1.89 3 3 3M3 5V17H21V5H3M9 8H15V14H9V8Z" /></svg>
